2021/04/09/prioritizing-memory-safety-migrations/surface-02.svg

<svg width="300pt" height="46pt" viewBox="0 0 300 46" xmlns="http://www.w3.org/2000/svg" xmlns:xlink="http://www.w3.org/1999/xlink"><g id="graph0" class="graph" transform="scale(1 1) rotate(0) translate(4 42)"><g id="node1" class="node"><title>attacker</title><path fill="none" stroke="var(--fg)" d="M42-36s-30 0-30 0C6-36 0-30 0-24v12C0-6 6 0 12 0H42c6 0 12-6 12-12V-24c0-6-6-12-12-12"/><text text-anchor="middle" x="27" y="-15.8" font-family="Roboto" font-size="9">attacker</text></g><g id="node2" class="node"><title>radio</title><path fill="none" stroke="var(--fg)" d="M140-36s-32 0-32 0c-6 0-12 6-12 12v12c0 6 6 12 12 12h32c6 0 12-6 12-12V-24c0-6-6-12-12-12"/><text text-anchor="middle" x="124" y="-15.8" font-family="Roboto" font-size="9">radio chip</text></g><g id="edge1" class="edge"><title>attacker->radio</title><path fill="none" stroke="var(--fg)" d="M54.21-18c9.72.0 20.94.0 31.46.0"/><polygon fill="var(--fg)" stroke="var(--fg)" points="85.88,-21.5 95.88,-18 85.88,-14.5 85.88,-21.5"/><text text-anchor="middle" x="75" y="-20.8" font-family="Roboto" font-size="9">0</text></g><g id="node3" class="node"><title>kernel</title><path fill="none" stroke="var(--fg)" d="M280-36s-45 0-45 0c-6 0-12 6-12 12v12c0 6 6 12 12 12h45c6 0 12-6 12-12V-24c0-6-6-12-12-12"/><text text-anchor="middle" x="257.5" y="-15.8" font-family="Roboto" font-size="9">device driver</text></g><g id="edge2" class="edge"><title>radio->kernel</title><path fill="none" stroke="var(--fg)" d="M152.25-18c17.42.0 40.42.0 60.38.0"/><polygon fill="var(--fg)" stroke="var(--fg)" points="212.74,-21.5 222.74,-18 212.74,-14.5 212.74,-21.5"/><text text-anchor="middle" x="187.5" y="-30.8" font-family="Roboto" font-size="9">low or</text><text text-anchor="middle" x="187.5" y="-20.8" font-family="Roboto" font-size="9">medium</text></g></g></svg>

<?xml version="1.0" encoding="UTF-8" standalone="no"?>
<!DOCTYPE svg PUBLIC "-//W3C//DTD SVG 1.1//EN"
 "http://www.w3.org/Graphics/SVG/1.1/DTD/svg11.dtd">
<!-- Generated by graphviz version 2.42.4 (0)
 -->
<!-- Pages: 1 -->
<svg width="300pt" height="46pt"
 viewBox="0.00 0.00 300.00 46.00" xmlns="http://www.w3.org/2000/svg" xmlns:xlink="http://www.w3.org/1999/xlink">
<g id="graph0" class="graph" transform="scale(1 1) rotate(0) translate(4 42)">
<!-- attacker -->
<g id="node1" class="node">
<title>attacker</title>
<path fill="none" stroke="var(--fg)" d="M42,-36C42,-36 12,-36 12,-36 6,-36 0,-30 0,-24 0,-24 0,-12 0,-12 0,-6 6,0 12,0 12,0 42,0 42,0 48,0 54,-6 54,-12 54,-12 54,-24 54,-24 54,-30 48,-36 42,-36"/>
<text text-anchor="middle" x="27" y="-15.8" font-family="Roboto" font-size="9.00">attacker</text>
</g>
<!-- radio -->
<g id="node2" class="node">
<title>radio</title>
<path fill="none" stroke="var(--fg)" d="M140,-36C140,-36 108,-36 108,-36 102,-36 96,-30 96,-24 96,-24 96,-12 96,-12 96,-6 102,0 108,0 108,0 140,0 140,0 146,0 152,-6 152,-12 152,-12 152,-24 152,-24 152,-30 146,-36 140,-36"/>
<text text-anchor="middle" x="124" y="-15.8" font-family="Roboto" font-size="9.00">radio chip</text>
</g>
<!-- attacker&#45;&gt;radio -->
<g id="edge1" class="edge">
<title>attacker&#45;&gt;radio</title>
<path fill="none" stroke="var(--fg)" d="M54.21,-18C63.93,-18 75.15,-18 85.67,-18"/>
<polygon fill="var(--fg)" stroke="var(--fg)" points="85.88,-21.5 95.88,-18 85.88,-14.5 85.88,-21.5"/>
<text text-anchor="middle" x="75" y="-20.8" font-family="Roboto" font-size="9.00">0</text>
</g>
<!-- kernel -->
<g id="node3" class="node">
<title>kernel</title>
<path fill="none" stroke="var(--fg)" d="M280,-36C280,-36 235,-36 235,-36 229,-36 223,-30 223,-24 223,-24 223,-12 223,-12 223,-6 229,0 235,0 235,0 280,0 280,0 286,0 292,-6 292,-12 292,-12 292,-24 292,-24 292,-30 286,-36 280,-36"/>
<text text-anchor="middle" x="257.5" y="-15.8" font-family="Roboto" font-size="9.00">device driver</text>
</g>
<!-- radio&#45;&gt;kernel -->
<g id="edge2" class="edge">
<title>radio&#45;&gt;kernel</title>
<path fill="none" stroke="var(--fg)" d="M152.25,-18C169.67,-18 192.67,-18 212.63,-18"/>
<polygon fill="var(--fg)" stroke="var(--fg)" points="212.74,-21.5 222.74,-18 212.74,-14.5 212.74,-21.5"/>
<text text-anchor="middle" x="187.5" y="-30.8" font-family="Roboto" font-size="9.00">low or</text>
<text text-anchor="middle" x="187.5" y="-20.8" font-family="Roboto" font-size="9.00">medium</text>
</g>
</g>
</svg>
